X: 145
T: Massa's In De Cold, Cold, Ground
C: Stephen C. Foster
%R: air, march
B: "The Everyday Song Book", 1927
F: http://www.library.pitt.edu/happybirthday/pdf/The_Everyday_Song_Book.pdf
Z: 2017 John Chambers <jc:trillian.mit.edu>
M: 4/4
L: 1/8
K: D
% - - - - - - - - - - - - - - - - - - - - - - - - - - - - -
[| A3 B A F E D | d4 B2 zB | A2 F2 F3 D | E6 z |
w: 1.~Round de mead-ows am a ring-ing       De dark-ies' mourn-ful song,
w: 2.~When de au-tumn leaves were fall-ing, -  When de days were cold,
w: 3.~Mas-sa make de dark-ies love him      -  Cayse he was so kind;
%
A | A3 B A F E D | d4 B2 z2 | B A F D
w: - While de mock-ing-bird am sing-ing,    Hap-py as de
w:  'Twas hard to hear old mas-sa call-ing, Cayse he was so
w: - Now dey sad-ly weep a-bove him,        Mourn-ing cayse he
%
F2 E- E | D6 zA | A3 B A F E D | d4 B2 z2 |
w: day am* long;      - Where de i-vy am a creep-ing
w: weak and* old;     - Now de or-ange trees am bloom-ing
w: leave dem be-hind; I can-not work be-fore to-mor-row,
%
A3 F F2 D2 E6 zA | A3 B A F E D | d4 B2 z2 | B A
w: O'er de grass-y mound,    - Dar old mas-sa am a-sleep-ing, Sleep-ing
w: On de sand-y shore,       - Now de sum-mer days am com-ing, Mas-sa
w: Cayse de tear-drops flow, I try to drive a-way my sor-row, Pick-in,
%
F D F2 E2 | D6 z2 [| "^Chorus"d4 c2 B2 | A4 F2 z2 | B2 A2 F2 D2 | E6 z2 |
w: in de cold, cold ground. | ~ ~ ~ | ~ ~ | ~ ~ ~ ~ | ~ |
w: neb-ber calls no ore.    | Down in de corn-field, Hear dat morn-ful sound;
w: on de old ban-jo.        | ~ ~ ~ | ~ ~ | ~ ~ ~ ~ | ~ |
%
A3 B A F E D | d4 B2 z2 | B A F D F2 E2 | D6 z2 |]
w: All de dark-ies am a-weep-ing, Mas-sa's in de cold, cold ground.
% - - - - - - - - - - - - - - - - - - - - - - - - - - - - -
